X: 1
T:The Mull of Kintyre
M:6/8
L:1/8
Q:80
C:A. Duncan
S:Jig
K:HP
{g}f/2e/2|
{Gdc}d2{e}A{g}A{d}A{e}A|
{g}Bcd{c}d{g}fe|  !
{Gdc}d2{e}A{g}A{d}A{e}A|
{g}Bcd{g}efe|
{Gdc}d2{e}A{g}A{d}A{e}A|  !
{g}Agf{gef}e2a|
{fg}fed{g}edB|
{g}A2{dc}d{gde}d2:|  !
e|
{g}f2d{c}def|
{a}ge{A}e2a|
{fg}f2d{gde}dcd|  !
{g}ec{d}A{GAG}A2e|
{g}f2d{c}def|
{a}ge{A}e2a|  !
{fg}fed{g}edB|
{g}A2{dc}d{gdc}d2:|
{g}G2{d}B{g}A{d}A{e}A|  !
{g}BdB{g}A{d}A{e}A|
{g}G2{d}B{g}A{d}A{e}A|
{g}Bcd{gef}e3|  !
{g}G2{d}B{g}A{d}A{e}A|
{g}BdB{G}A2a|
{fg}fed{g}edB|  !
{g}A2{dc}d{gdc}d2:|
e|
{g}fdf{a}geg|
{a}fdf{g}gc{d}A|  !
{g}fdf{a}gfg|
{a}fdf{gef}e3|
{g}fdf{a}geg|  !
{a}fdf{g}gc{d}A|
{fg}fed{g}edB|
{g}A2{dc}d{gdc}d2:|  !
